X: 10328
T: Dominic's Farewell To Cashel
R: jig
M: 6/8
K: Gmajor
~G2G BAB|dBd efg|~G2G dBG|ABG AFD|
~G2G BAB|dBd efg|age dBA|BGG G3:|
~g2g efg|aga bge|~g2g e/f/ge|dBG AFD|
~g2g efg|aga bge|~g2e dBA|BGG G3:|

